work04/images/icon04.svg

<svg viewBox="0 0 60 60" xmlns="http://www.w3.org/2000/svg" xmlns:xlink="http://www.w3.org/1999/xlink"><clipPath id="a"><path d="m6.92 3.64h46.35v52.77h-46.35z"/></clipPath><path d="m0 0h60v60h-60z" fill="none"/><g clip-path="url(#a)"><path d="m30.67 4.41h-1.33a14 14 0 0 0 -6.13 1.86 14.33 14.33 0 0 0 -6.32 16.91l9.46 21.68a3.82 3.82 0 0 0 7.27 0l9.49-21.66a14.27 14.27 0 0 0 -6.3-16.93 14 14 0 0 0 -6.14-1.86zm-.67 20.86a6.71 6.71 0 0 1 -3.78-1.16 6.93 6.93 0 0 1 -1-10.6 6.75 6.75 0 0 1 3.48-1.89 6.82 6.82 0 0 1 3.94.39 6.91 6.91 0 0 1 4.2 6.37 7 7 0 0 1 -.55 2.62 6.79 6.79 0 0 1 -1.48 2.23 6.88 6.88 0 0 1 -2.2 1.5 6.72 6.72 0 0 1 -2.61.52z" fill="#e9d6d6"/><path d="m30 54.84c12 0 21.65-4.67 21.65-10.43s-9.65-10.41-21.65-10.41-21.65 4.64-21.65 10.41 9.65 10.43 21.65 10.43z" fill="none" stroke="#e9d6d6" stroke-miterlimit="10" stroke-width="2"/></g></svg>

<svg xmlns="http://www.w3.org/2000/svg" xmlns:xlink="http://www.w3.org/1999/xlink" viewBox="0 0 60 60"><defs><clipPath id="a"><rect x="6.92" y="3.64" width="46.35" height="52.77" style="fill:none"/></clipPath></defs><rect width="60" height="60" style="fill:none"/><g style="clip-path:url(#a)"><path d="M30.67,4.41H29.34a14,14,0,0,0-6.13,1.86,14.33,14.33,0,0,0-6.32,16.91l9.46,21.68a3.82,3.82,0,0,0,7.27,0L43.11,23.2a14.27,14.27,0,0,0-6.3-16.93A14,14,0,0,0,30.67,4.41ZM30,25.27a6.71,6.71,0,0,1-3.78-1.16,6.93,6.93,0,0,1-1-10.6,6.75,6.75,0,0,1,3.48-1.89,6.82,6.82,0,0,1,3.94.39,6.91,6.91,0,0,1,4.2,6.37A7,7,0,0,1,36.29,21a6.79,6.79,0,0,1-1.48,2.23,6.88,6.88,0,0,1-2.2,1.5,6.72,6.72,0,0,1-2.61.52Z" style="fill:#e9d6d6"/><path d="M30,54.84c12,0,21.65-4.67,21.65-10.43S42,34,30,34,8.35,38.64,8.35,44.41,18,54.84,30,54.84Z" style="fill:none;stroke:#e9d6d6;stroke-miterlimit:10;stroke-width:2px"/></g></svg>
